images/insta-hover.svg

<svg width="40" height="40" viewBox="0 0 40 40" fill="none" xmlns="http://www.w3.org/2000/svg">
<rect width="40" height="40" rx="20" fill="url(#paint0_radial_11_7673)"/>
<path d="M20 11.8072C22.6506 11.8072 23.0121 11.8072 24.0964 11.8072C25.0602 11.8072 25.5422 12.0482 25.9036 12.1687C26.3855 12.4096 26.747 12.5301 27.1084 12.8916C27.4699 13.253 27.7108 13.6145 27.8313 14.0964C27.9518 14.4578 28.0723 14.9398 28.1928 15.9036C28.1928 16.988 28.1928 17.2289 28.1928 20C28.1928 22.7711 28.1928 23.0121 28.1928 24.0964C28.1928 25.0602 27.9518 25.5422 27.8313 25.9036C27.5904 26.3855 27.4699 26.747 27.1084 27.1084C26.747 27.4699 26.3855 27.7108 25.9036 27.8313C25.5422 27.9518 25.0602 28.0723 24.0964 28.1928C23.0121 28.1928 22.7711 28.1928 20 28.1928C17.2289 28.1928 16.988 28.1928 15.9036 28.1928C14.9398 28.1928 14.4578 27.9518 14.0964 27.8313C13.6145 27.5904 13.253 27.4699 12.8916 27.1084C12.5301 26.747 12.2892 26.3855 12.1687 25.9036C12.0482 25.5422 11.9277 25.0602 11.8072 24.0964C11.8072 23.0121 11.8072 22.7711 11.8072 20C11.8072 17.2289 11.8072 16.988 11.8072 15.9036C11.8072 14.9398 12.0482 14.4578 12.1687 14.0964C12.4096 13.6145 12.5301 13.253 12.8916 12.8916C13.253 12.5301 13.6145 12.2892 14.0964 12.1687C14.4578 12.0482 14.9398 11.9277 15.9036 11.8072C16.988 11.8072 17.3494 11.8072 20 11.8072ZM20 10C17.2289 10 16.988 10 15.9036 10C14.8193 10 14.0964 10.241 13.494 10.4819C12.8916 10.7229 12.2892 11.0843 11.6867 11.6867C11.0843 12.2892 10.8434 12.7711 10.4819 13.494C10.241 14.0964 10.1205 14.8193 10 15.9036C10 16.988 10 17.3494 10 20C10 22.7711 10 23.0121 10 24.0964C10 25.1807 10.241 25.9036 10.4819 26.506C10.7229 27.1084 11.0843 27.7108 11.6867 28.3133C12.2892 28.9157 12.7711 29.1566 13.494 29.5181C14.0964 29.759 14.8193 29.8795 15.9036 30C16.988 30 17.3494 30 20 30C22.6506 30 23.0121 30 24.0964 30C25.1807 30 25.9036 29.759 26.506 29.5181C27.1084 29.2771 27.7108 28.9157 28.3133 28.3133C28.9157 27.7108 29.1566 27.2289 29.5181 26.506C29.759 25.9036 29.8795 25.1807 30 24.0964C30 23.0121 30 22.6506 30 20C30 17.3494 30 16.988 30 15.9036C30 14.8193 29.759 14.0964 29.5181 13.494C29.2771 12.8916 28.9157 12.2892 28.3133 11.6867C27.7108 11.0843 27.2289 10.8434 26.506 10.4819C25.9036 10.241 25.1807 10.1205 24.0964 10C23.0121 10 22.7711 10 20 10Z" fill="white"/>
<path d="M20 14.8193C17.1084 14.8193 14.8193 17.1084 14.8193 20C14.8193 22.8916 17.1084 25.1807 20 25.1807C22.8916 25.1807 25.1807 22.8916 25.1807 20C25.1807 17.1084 22.8916 14.8193 20 14.8193ZM20 23.3735C18.1928 23.3735 16.6265 21.9277 16.6265 20C16.6265 18.1928 18.0723 16.6265 20 16.6265C21.8072 16.6265 23.3735 18.0723 23.3735 20C23.3735 21.8072 21.8072 23.3735 20 23.3735Z" fill="white"/>
<path d="M25.3012 15.9036C25.9666 15.9036 26.506 15.3642 26.506 14.6988C26.506 14.0334 25.9666 13.494 25.3012 13.494C24.6358 13.494 24.0964 14.0334 24.0964 14.6988C24.0964 15.3642 24.6358 15.9036 25.3012 15.9036Z" fill="white"/>
<defs>
<radialGradient id="paint0_radial_11_7673" cx="0" cy="0" r="1" gradientUnits="userSpaceOnUse" gradientTransform="translate(40.8047 0.812501) scale(92.3719)">
<stop stop-color="#F9ED32"/>
<stop offset="0.36" stop-color="#EE2A7B"/>
<stop offset="0.44" stop-color="#D22A8A"/>
<stop offset="0.6" stop-color="#8B2AB2"/>
<stop offset="0.83" stop-color="#1B2AF0"/>
<stop offset="0.88" stop-color="#002AFF"/>
</radialGradient>
</defs>
</svg>

<svg xmlns="http://www.w3.org/2000/svg" width="40" height="40" fill="none"><rect width="40" height="40" fill="url(#a)" rx="20"/><path fill="#fff" d="M20 11.807h4.096c.964 0 1.446.241 1.808.362.482.24.843.361 1.204.723.362.361.603.723.723 1.204.12.362.241.844.362 1.808v8.192c0 .964-.241 1.446-.362 1.808-.24.482-.361.843-.723 1.204-.361.362-.723.603-1.204.723-.362.12-.844.241-1.808.362h-8.192c-.964 0-1.446-.241-1.808-.362-.482-.24-.843-.361-1.204-.723-.362-.361-.603-.723-.723-1.204-.12-.362-.241-.844-.362-1.808v-8.192c0-.964.241-1.446.362-1.808.24-.482.361-.843.723-1.204.361-.362.723-.603 1.204-.723.362-.12.844-.241 1.808-.362H20ZM20 10h-4.096c-1.085 0-1.808.241-2.41.482a5.263 5.263 0 0 0-1.807 1.205c-.603.602-.844 1.084-1.205 1.807-.241.602-.361 1.325-.482 2.41v8.192c0 1.085.241 1.808.482 2.41a5.263 5.263 0 0 0 1.205 1.807c.602.603 1.084.844 1.807 1.205.602.241 1.325.361 2.41.482h8.192c1.085 0 1.808-.241 2.41-.482a5.263 5.263 0 0 0 1.807-1.205c.603-.602.844-1.084 1.205-1.807.241-.602.361-1.325.482-2.41v-8.192c0-1.085-.241-1.808-.482-2.41a5.263 5.263 0 0 0-1.205-1.807c-.602-.603-1.084-.844-1.807-1.205-.602-.241-1.325-.361-2.41-.482H20Z"/><path fill="#fff" d="M20 14.82A5.142 5.142 0 0 0 14.82 20c0 2.892 2.288 5.18 5.18 5.18s5.18-2.288 5.18-5.18-2.288-5.18-5.18-5.18Zm0 8.553A3.368 3.368 0 0 1 16.627 20 3.368 3.368 0 0 1 20 16.627 3.368 3.368 0 0 1 23.373 20c0 1.807-1.566 3.373-3.373 3.373ZM25.301 15.904a1.205 1.205 0 1 0 0-2.41 1.205 1.205 0 0 0 0 2.41Z"/><defs><radialGradient id="a" cx="0" cy="0" r="1" gradientTransform="translate(40.805 .813) scale(92.3719)" gradientUnits="userSpaceOnUse"><stop stop-color="#F9ED32"/><stop offset=".36" stop-color="#EE2A7B"/><stop offset=".44" stop-color="#D22A8A"/><stop offset=".6" stop-color="#8B2AB2"/><stop offset=".83" stop-color="#1B2AF0"/><stop offset=".88" stop-color="#002AFF"/></radialGradient></defs></svg>
